Adwaita++/actions/22/kdenlive-zindex-top.svg

<svg height="22" width="22" xmlns="http://www.w3.org/2000/svg">
  <g fill="#444" transform="translate(3 3)">
    <path d="m7 11v-7l-3.5 3.5-1.5-1.5 6-6 6 6-1.5 1.5-3.5-3.5v7z"/>
    <circle cx="8" cy="14" r="2"/>
  </g>
</svg>

<svg xmlns="http://www.w3.org/2000/svg" width="22" height="22" version="1.1">
 <defs>
  <style id="current-color-scheme" type="text/css">
   .ColorScheme-Text { color:#444444; } .ColorScheme-Highlight { color:#4285f4; }
  </style>
 </defs>
 <g transform="matrix(1,0,0,1,3,3)">
  <path class="ColorScheme-Text" d="M 7,11 V 4 L 3.5,7.5 2,6 8,0 14,6 12.5,7.5 9,4 V 11 Z" style="fill:currentColor"/>
  <circle class="ColorScheme-Text" cx="8" cy="14" r="2" style="fill:currentColor"/>
 </g>
</svg>
